X:1
T: Juliana
N:
C:
S:
A:
O:
R:
M:6/8
K:C
I:speed 150
%W: A1
% voice 1 (1 lines, 41 notes)
K:C
M:6/8
L:1/16
G2 A2 G2 c4 e2 d2 c2 d2 c4 e2 g2 c'2 a2 g2 e2 c2 f2 e2 f2 d4 e2 |G2 A2 G2 c4 e2 d2 c2 d2 c4 e2 g2 c'2 a2 g2 e2 c2 d2 c2 d2 c6 |
%W: A2
% voice 1 (1 lines, 41 notes)
G2 A2 G2 c4 e2 d2 c2 d2 c4 e2 g2 c'2 a2 g2 e2 c2 f2 e2 f2 d4 e2 |G2 A2 G2 c4 e2 d2 c2 d2 c4 e2 g2 c'2 a2 g2 e2 c2 d2 c2 d2 c6 |
%W: B1
% voice 1 (1 lines, 44 notes)
d2 g2 g2 g4 f2 d2 g2 f2 e2 d2 c2 B2 d2 g2 g4 f2 e2 g2 e2 c4 g2 |a2 f2 c'2 c'2 a2 f2 g2 e2 c'2 c'2 g2 e2 a2 f2 d2 g2 e2 c2 B4 c2 d2 B2 G2 |
%W: B2
% voice 1 (1 lines, 44 notes)
d2 g2 g2 g4 f2 d2 g2 f2 e2 d2 c2 B2 d2 g2 g4 f2 e2 g2 e2 c4 g2 |a2 f2 c'2 c'2 a2 f2 g2 e2 c'2 c'2 g2 e2 a2 f2 d2 g2 e2 c2 B4 c2 d2 B2 G2 |
%W: C1
% voice 1 (1 lines, 34 notes)
e4 d2 f4 e2 d4 c2 A4 c2 G4 c2 d4 e2 g2 f2 e2 e2 d2 c2 |e4 d2 f4 e2 d4 c2 A4 c2 G4 c2 d4 e2 f2 d2 B2 c6 |
%W: C2
% voice 1 (1 lines, 34 notes)
e4 d2 f4 e2 d4 c2 A4 c2 G4 c2 d4 e2 g2 f2 e2 e2 d2 c2 |e4 d2 f4 e2 d4 c2 A4 c2 G4 c2 d4 e2 f2 d2 B2 c6 ||
